src/sources/forus-webshop/resources/_webshop-common/assets/img/icon-menu/icon-menu-start-request.svg

<svg width="28" height="34" viewBox="0 0 28 34" fill="none" xmlns="http://www.w3.org/2000/svg">
<path opacity="0.85" fill-rule="evenodd" clip-rule="evenodd" d="M25.0762 6.94214L22.4001 8.49081V11.5916L25.0762 13.1403L27.7531 11.5916V8.49081L25.0762 6.94214Z" fill="#939698"/>
<path fill-rule="evenodd" clip-rule="evenodd" d="M0.00012207 8.49081V11.5916L2.67618 13.1403L5.35313 11.5916V8.49081L2.67618 6.94214L0.00012207 8.49081Z" fill="#939698"/>
<path fill-rule="evenodd" clip-rule="evenodd" d="M0.00012207 8.57345L2.67618 10.1239L5.35313 8.57345L2.67618 7.02478L0.00012207 8.57345Z" fill="#939698"/>
<path opacity="0.0992414" fill-rule="evenodd" clip-rule="evenodd" d="M11.2001 1.54867V4.64949L13.8771 6.19815L16.5531 4.64949V1.54867L13.8771 0L11.2001 1.54867Z" fill="#25262A"/>
<path fill-rule="evenodd" clip-rule="evenodd" d="M11.2001 29.3173V32.4181L13.8771 33.9668L16.5531 32.4181V29.3173L13.8771 27.7686L11.2001 29.3173Z" fill="#939698"/>
<path opacity="0.85" fill-rule="evenodd" clip-rule="evenodd" d="M22.4001 22.0445V25.1453L25.0762 26.694L27.7531 25.1453V22.0445L25.0762 20.4958L22.4001 22.0445Z" fill="#939698"/>
<path fill-rule="evenodd" clip-rule="evenodd" d="M0.00012207 22.0445V25.1453L2.67618 26.694L5.35313 25.1453V22.0445L2.67618 20.4958L0.00012207 22.0445Z" fill="#939698"/>
<path d="M2.10013 23.1818L12.6001 30.0661" stroke="#939698" stroke-width="1.5" stroke-linecap="square"/>
<path d="M23.6601 24.4463L13.1601 31.3306" stroke="#939698" stroke-width="1.5" stroke-linecap="square"/>
<path fill-rule="evenodd" clip-rule="evenodd" d="M11.2001 29.3668L13.8762 30.9173L16.5531 29.3668L13.8762 27.8182L11.2001 29.3668Z" fill="#939698"/>
<path d="M2.66013 12.2231V25.1488" stroke="#939698" stroke-width="1.5" stroke-linecap="square"/>
<path fill-rule="evenodd" clip-rule="evenodd" d="M14.0001 12.6447C10.9074 12.6447 8.40012 15.1191 8.40012 18.1715C8.40012 19.7023 9.03068 21.0877 10.0495 22.0882C10.1151 22.1523 10.2267 22.1372 10.2715 22.0575C10.7488 21.2065 11.5855 20.5409 12.6066 20.217C11.9403 19.7739 11.5023 19.023 11.5023 18.171C11.5023 16.8092 12.6206 15.7059 14.0001 15.7059C15.3797 15.7059 16.4979 16.8092 16.4979 18.171C16.4979 19.023 16.0595 19.7739 15.3937 20.217C16.4148 20.5409 17.2515 21.2065 17.7288 22.0575C17.7731 22.1372 17.8852 22.1523 17.9503 22.0882C18.9691 21.0877 19.6001 19.7023 19.6001 18.1715C19.6001 15.1191 17.0928 12.6447 14.0001 12.6447Z" fill="#939698"/>
</svg>

<svg width="28" height="34"  viewBox="0 0 28 34" fill="none" xmlns="http://www.w3.org/2000/svg"><path opacity=".85" fill-rule="evenodd" clip-rule="evenodd" d="M25.076 6.942L22.4 8.491v3.1l2.676 1.55 2.677-1.55v-3.1l-2.677-1.549z" fill="#939698"/><path fill-rule="evenodd" clip-rule="evenodd" d="M0 8.49v3.102l2.676 1.548 2.677-1.548V8.49L2.676 6.942 0 8.491z" fill="#939698"/><path fill-rule="evenodd" clip-rule="evenodd" d="M0 8.573l2.676 1.55 2.677-1.55-2.677-1.548L0 8.573z" fill="#939698"/><path opacity=".099" fill-rule="evenodd" clip-rule="evenodd" d="M11.2 1.549v3.1l2.677 1.55 2.676-1.55v-3.1L13.877 0 11.2 1.549z" fill="#25262A"/><path fill-rule="evenodd" clip-rule="evenodd" d="M11.2 29.317v3.101l2.677 1.549 2.676-1.549v-3.1l-2.676-1.55-2.677 1.55z" fill="#939698"/><path opacity=".85" fill-rule="evenodd" clip-rule="evenodd" d="M22.4 22.044v3.101l2.676 1.549 2.677-1.549v-3.1l-2.677-1.55-2.676 1.55z" fill="#939698"/><path fill-rule="evenodd" clip-rule="evenodd" d="M0 22.044v3.101l2.676 1.549 2.677-1.549v-3.1l-2.677-1.55L0 22.046z" fill="#939698"/><path d="M2.1 23.182l10.5 6.884M23.66 24.446l-10.5 6.885" stroke="#939698" stroke-width="1.5" stroke-linecap="square"/><path fill-rule="evenodd" clip-rule="evenodd" d="M11.2 29.367l2.676 1.55 2.677-1.55-2.677-1.549-2.676 1.549z" fill="#939698"/><path d="M2.66 12.223V25.15" stroke="#939698" stroke-width="1.5" stroke-linecap="square"/><path fill-rule="evenodd" clip-rule="evenodd" d="M14 12.645c-3.093 0-5.6 2.474-5.6 5.527 0 1.53.63 2.916 1.65 3.916a.142.142 0 00.221-.03c.478-.852 1.314-1.517 2.336-1.841a2.454 2.454 0 01-1.105-2.046c0-1.362 1.119-2.465 2.498-2.465 1.38 0 2.498 1.103 2.498 2.465 0 .852-.439 1.603-1.104 2.046 1.02.324 1.857.99 2.335 1.84.044.08.156.095.221.031a5.473 5.473 0 001.65-3.916c0-3.053-2.507-5.527-5.6-5.527z" fill="#939698"/></svg>
